src/actions/22/xml-element-new.svg

<svg xmlns="http://www.w3.org/2000/svg" viewBox="0 0 22 22">
  <defs id="defs3051">
    <style type="text/css" id="current-color-scheme">
      .ColorScheme-Text {
        color:#363636;
      }
      </style>
  </defs>
 <path 
    style="fill:currentColor;fill-opacity:1;stroke:none" 
    d="M 12.5 3 L 8.5 18.753906 L 9.5 19 L 13.5 3.2460938 L 12.5 3 z M 7.2539062 6 L 3.2792969 10.644531 L 3 11 L 3.2792969 11.355469 L 7.2539062 16 L 8 15.291016 L 4.3359375 11 L 8 6.7089844 L 7.2539062 6 z M 14.746094 6 L 14 6.7089844 L 17.664062 11 L 15.957031 13 L 17.3125 13 L 18.720703 11.355469 L 19 11 L 18.720703 10.644531 L 14.746094 6 z M 16 14 L 16 16 L 14 16 L 14 17 L 16 17 L 16 19 L 17 19 L 17 17 L 19 17 L 19 16 L 17 16 L 17 14 L 16 14 z "
    class="ColorScheme-Text"
    />  
</svg>

<svg xmlns="http://www.w3.org/2000/svg" viewBox="0 0 22 22">
    <path d="m12.5 3-4 15.754 1 .246 4-15.754-1-.246zM7.254 6l-3.975 4.645L3 11l.28.355L7.253 16 8 15.291 4.336 11 8 6.709 7.254 6zm7.492 0L14 6.709 17.664 11l-1.707 2h1.355l1.409-1.645L19 11l-.28-.355L14.747 6zM16 14v2h-2v1h2v2h1v-2h2v-1h-2v-2h-1z" style="fill:currentColor;fill-opacity:1;stroke:none;color:#050505;opacity:.7"/>
</svg>
